icons/outline/user-group.svg

<svg width="24" height="24" viewBox="0 0 24 24" fill="none" xmlns="http://www.w3.org/2000/svg">
<path d="M17.9999 18.7191C18.2474 18.7396 18.4978 18.75 18.7506 18.75C19.7989 18.75 20.8054 18.5708 21.741 18.2413C21.7473 18.1617 21.7506 18.0812 21.7506 18C21.7506 16.3431 20.4074 15 18.7506 15C18.123 15 17.5403 15.1927 17.0587 15.5222M17.9999 18.7191C18 18.7294 18 18.7397 18 18.75C18 18.975 17.9876 19.1971 17.9635 19.4156C16.2067 20.4237 14.1707 21 12 21C9.82933 21 7.79327 20.4237 6.03651 19.4156C6.01238 19.1971 6 18.975 6 18.75C6 18.7397 6.00003 18.7295 6.00008 18.7192M17.9999 18.7191C17.994 17.5426 17.6494 16.4461 17.0587 15.5222M17.0587 15.5222C15.9928 13.8552 14.1255 12.75 12 12.75C9.87479 12.75 8.00765 13.8549 6.94169 15.5216M6.94169 15.5216C6.46023 15.1925 5.87796 15 5.25073 15C3.59388 15 2.25073 16.3431 2.25073 18C2.25073 18.0812 2.25396 18.1617 2.26029 18.2413C3.19593 18.5708 4.2024 18.75 5.25073 18.75C5.50307 18.75 5.75299 18.7396 6.00008 18.7192M6.94169 15.5216C6.35071 16.4457 6.00598 17.5424 6.00008 18.7192M15 6.75C15 8.40685 13.6569 9.75 12 9.75C10.3431 9.75 9 8.40685 9 6.75C9 5.09315 10.3431 3.75 12 3.75C13.6569 3.75 15 5.09315 15 6.75ZM21 9.75C21 10.9926 19.9926 12 18.75 12C17.5074 12 16.5 10.9926 16.5 9.75C16.5 8.50736 17.5074 7.5 18.75 7.5C19.9926 7.5 21 8.50736 21 9.75ZM7.5 9.75C7.5 10.9926 6.49264 12 5.25 12C4.00736 12 3 10.9926 3 9.75C3 8.50736 4.00736 7.5 5.25 7.5C6.49264 7.5 7.5 8.50736 7.5 9.75Z" stroke="#0F172A" stroke-width="1.5" stroke-linecap="round" stroke-linejoin="round"/>
</svg>

<svg xmlns="http://www.w3.org/2000/svg" fill="none" viewBox="0 0 24 24" stroke-width="1.5" stroke="currentColor" aria-hidden="true" data-slot="icon">
  <path stroke-linecap="round" stroke-linejoin="round" d="M18 18.72a9.094 9.094 0 0 0 3.741-.479 3 3 0 0 0-4.682-2.72m.94 3.198.001.031c0 .225-.012.447-.037.666A11.944 11.944 0 0 1 12 21c-2.17 0-4.207-.576-5.963-1.584A6.062 6.062 0 0 1 6 18.719m12 0a5.971 5.971 0 0 0-.941-3.197m0 0A5.995 5.995 0 0 0 12 12.75a5.995 5.995 0 0 0-5.058 2.772m0 0a3 3 0 0 0-4.681 2.72 8.986 8.986 0 0 0 3.74.477m.94-3.197a5.971 5.971 0 0 0-.94 3.197M15 6.75a3 3 0 1 1-6 0 3 3 0 0 1 6 0Zm6 3a2.25 2.25 0 1 1-4.5 0 2.25 2.25 0 0 1 4.5 0Zm-13.5 0a2.25 2.25 0 1 1-4.5 0 2.25 2.25 0 0 1 4.5 0Z"/>
</svg>
